images/company8.svg

<svg width="144" height="40" viewBox="0 0 144 40" fill="none" xmlns="http://www.w3.org/2000/svg">
<g id="Frame" clip-path="url(#clip0_282_1477)">
<path id="Vector" d="M21.7499 3.10858C21.7499 4.49144 20.6299 5.62287 19.2699 5.62287C17.8985 5.62287 16.7556 4.48001 16.7556 3.10858C16.7556 1.73716 17.8985 0.594299 19.2699 0.594299C20.6299 0.594299 21.7499 1.73716 21.7499 3.10858ZM28.1499 3.41716C28.5385 3.41716 28.8356 3.50858 29.487 3.92001C32.1721 5.63928 34.3868 8.00016 35.9311 10.7895C37.4754 13.5789 38.3008 16.709 38.3327 19.8972C38.3327 25.2 36.367 30.0457 32.8127 33.6114C31.0259 35.3653 28.9088 36.7472 26.5842 37.6771C24.2595 38.607 21.7734 39.0663 19.2699 39.0286C14.2188 39.0747 9.35296 37.1283 5.72703 33.6114C2.09275 30.1029 0.207031 25.2 0.207031 19.8857C0.207031 13.0514 3.97846 7.20001 9.04132 3.90858C9.69275 3.49716 10.0013 3.40573 10.3785 3.40573C11.3156 3.40573 12.1499 4.09144 12.1499 5.1543C12.1499 5.9543 11.7156 6.46858 10.927 7.01716C8.77813 8.42917 7.01527 10.3548 5.79801 12.6197C4.58074 14.8846 3.9475 17.4173 3.9556 19.9886C3.9556 24.3543 5.5556 28.3886 8.49275 31.3257C9.90228 32.7482 11.5815 33.8752 13.4321 34.6405C15.2826 35.4059 17.2673 35.7942 19.2699 35.7829C23.4185 35.7829 27.1785 34.1714 30.0356 31.3257C31.5044 29.8297 32.6625 28.0576 33.4432 26.1118C34.2239 24.166 34.6116 22.085 34.5842 19.9886C34.5842 14.5829 31.9327 9.9543 27.6127 7.01716C26.8127 6.49144 26.3899 5.96573 26.3899 5.1543C26.3899 4.10287 27.2242 3.40573 28.1499 3.40573V3.41716ZM19.2699 31.7486C18.1727 31.7486 17.327 30.8686 17.327 29.7143V11.5657C17.327 10.3886 18.1499 9.53144 19.2699 9.53144C20.367 9.53144 21.2127 10.3886 21.2127 11.5657V29.7143C21.2127 30.8914 20.367 31.7486 19.2699 31.7486ZM49.6242 29.6914H46.767C46.5385 29.6914 46.447 29.6 46.447 29.3486V12.2629C46.447 12.0572 46.5499 11.9543 46.7556 11.9543H49.6242C49.7956 11.9543 49.887 12.0572 49.887 12.2629V29.3714C49.887 29.6 49.7956 29.7143 49.6242 29.7143V29.6914ZM68.8127 29.6914H66.0127C65.8185 29.6914 65.7042 29.6 65.7042 29.3829V19.3943C65.7042 16.24 64.4585 15.12 61.407 15.12H57.5785C57.5475 15.12 57.5168 15.1262 57.4883 15.1384C57.4598 15.1506 57.434 15.1685 57.4127 15.1909C57.3913 15.2134 57.3747 15.24 57.3639 15.269C57.3531 15.2981 57.3483 15.329 57.3499 15.36V29.3829C57.3499 29.6 57.2356 29.6914 57.0527 29.6914H54.1956C54.0013 29.6914 53.8756 29.6 53.8756 29.3829V12.2514C53.8756 12.0457 53.9899 11.9429 54.1842 11.9429H61.6356C66.2756 11.9429 69.1213 14.1714 69.1213 18.6057V29.3829C69.0985 29.6 69.0185 29.6914 68.8127 29.6914ZM76.6413 26.4H79.007C82.7099 26.4 84.3099 23.9314 84.3099 20.8343C84.3099 17.7257 82.687 15.2686 79.0527 15.2686H76.6185C76.447 15.2686 76.3785 15.3829 76.3785 15.4972V26.1829C76.3785 26.2743 76.4699 26.4 76.6413 26.4ZM72.9385 12.2514C72.9385 12.0457 73.0527 11.9657 73.2242 11.9657H78.2413C85.1442 11.9657 87.9442 15.9772 87.9442 20.8114C87.9442 25.7257 85.2127 29.6914 77.887 29.6914H73.2242C73.0527 29.6914 72.9385 29.6 72.9385 29.3829V12.2514ZM102.321 19.2572C102.39 16.56 100.836 14.5714 98.1842 14.5714C95.7842 14.5714 94.127 16.4572 94.0356 19.2572M105.521 22.1143C105.418 22.24 105.178 22.2629 104.973 22.2629H94.1156C94.2413 25.2343 96.4927 26.9486 100.15 26.9486C101.864 26.9486 103.373 26.4686 104.47 26.0114C104.778 25.8972 104.847 26.0343 104.847 26.4L104.893 28.9257C104.893 29.1543 104.847 29.2686 104.584 29.36C103.487 29.7943 101.464 30.1257 99.8527 30.1257C96.9956 30.1257 94.6756 29.36 93.0756 27.8972C91.3613 26.3543 90.447 23.9886 90.447 20.9486C90.447 15.36 93.6013 11.4972 98.287 11.4972C103.087 11.4972 105.761 15.2 105.761 20.2057C105.784 21.6 105.681 21.9086 105.521 22.1257V22.1143ZM113.578 30.1029C111.99 30.1029 109.864 29.7372 108.744 29.3829C108.401 29.2686 108.333 29.1657 108.333 28.9029L108.413 26.2286C108.413 26.0114 108.504 25.9429 108.721 26.0114C110.013 26.56 111.876 26.9943 114.047 26.9943C116.893 26.9943 117.75 25.8972 117.75 24.8229C117.75 23.7486 117.133 23.2229 115.27 22.7657L113.19 22.2629C109.91 21.4629 108.31 20.0229 108.31 17.0057C108.31 13.92 110.607 11.44 115.03 11.44C116.813 11.44 118.87 11.76 119.99 12.0114C120.23 12.0914 120.378 12.1372 120.378 12.4457L120.356 14.96C120.356 15.1886 120.207 15.2229 119.944 15.1657C118.332 14.7886 116.685 14.5818 115.03 14.5486C112.778 14.5486 111.876 15.6229 111.876 16.7429C111.876 17.8743 112.424 18.6286 114.767 19.2114L116.458 19.6114C119.681 20.4229 121.281 21.8629 121.281 24.5829C121.304 27.7143 119.156 30.1029 113.567 30.1029H113.578ZM127.704 29.6914H124.847C124.618 29.6914 124.561 29.6 124.561 29.3486V12.2629C124.561 12.0572 124.653 11.9543 124.847 11.9543H127.704C127.898 11.9543 127.967 12.0572 127.967 12.2629V29.3714C127.967 29.6 127.898 29.7143 127.704 29.7143V29.6914ZM143.293 15.12H139.224C139.076 15.12 138.984 15.2343 138.984 15.36V29.4514C138.984 29.6 138.893 29.6914 138.744 29.6914H135.761C135.73 29.693 135.699 29.6882 135.67 29.6774C135.641 29.6666 135.615 29.6501 135.592 29.6287C135.57 29.6073 135.552 29.5816 135.54 29.5531C135.528 29.5246 135.521 29.4939 135.521 29.4629V15.3486C135.521 15.2343 135.43 15.12 135.304 15.12H131.247C131.098 15.12 131.007 15.0057 131.007 14.8914V12.1714C131.007 12.0343 131.098 11.9429 131.236 11.9429H143.281C143.396 11.9429 143.521 12.0343 143.521 12.1714V14.8914C143.521 15.0057 143.407 15.12 143.293 15.12Z" fill="white"/>
</g>
<defs>
<clipPath id="clip0_282_1477">
<rect width="142.857" height="40" fill="white" transform="translate(0.664062)"/>
</clipPath>
</defs>
</svg>

<svg width="144" height="40" fill="none" xmlns="http://www.w3.org/2000/svg"><g clip-path="url(#a)"><path d="M21.75 3.109c0 1.382-1.12 2.514-2.48 2.514a2.537 2.537 0 0 1-2.514-2.514A2.537 2.537 0 0 1 19.27.594c1.36 0 2.48 1.143 2.48 2.515Zm6.4.308c.389 0 .686.092 1.337.503a19.2 19.2 0 0 1 8.846 15.977c0 5.303-1.966 10.149-5.52 13.714A18.926 18.926 0 0 1 19.27 39.03 19.2 19.2 0 0 1 5.727 33.61C2.093 30.103.207 25.2.207 19.886.207 13.05 3.978 7.2 9.041 3.909c.652-.412.96-.503 1.338-.503.937 0 1.77.685 1.77 1.748 0 .8-.433 1.315-1.222 1.863A15.463 15.463 0 0 0 3.956 19.99c0 4.365 1.6 8.4 4.537 11.337a15.05 15.05 0 0 0 10.777 4.457c4.149 0 7.909-1.612 10.766-4.457a15.885 15.885 0 0 0 4.548-11.337c0-5.406-2.651-10.035-6.971-12.972-.8-.526-1.223-1.051-1.223-1.863 0-1.051.834-1.748 1.76-1.748v.011ZM19.27 31.75c-1.097 0-1.943-.88-1.943-2.035V11.566c0-1.177.823-2.035 1.943-2.035 1.097 0 1.943.858 1.943 2.035v18.148c0 1.177-.846 2.035-1.943 2.035Zm30.354-2.058h-2.857c-.229 0-.32-.091-.32-.342V12.263c0-.206.103-.309.309-.309h2.868c.172 0 .263.103.263.309V29.37c0 .229-.091.343-.263.343v-.023Zm19.189 0h-2.8c-.195 0-.309-.091-.309-.308v-9.989c0-3.154-1.245-4.274-4.297-4.274h-3.828a.23.23 0 0 0-.23.24v14.023c0 .217-.113.308-.296.308h-2.857c-.195 0-.32-.091-.32-.308V12.25c0-.205.114-.308.308-.308h7.452c4.64 0 7.485 2.228 7.485 6.663v10.777c-.022.217-.102.308-.308.308ZM76.64 26.4h2.366c3.703 0 5.303-2.469 5.303-5.566 0-3.108-1.623-5.565-5.257-5.565h-2.434c-.172 0-.24.114-.24.228v10.686c0 .091.09.217.262.217Zm-3.703-14.149c0-.205.115-.285.286-.285h5.017c6.903 0 9.703 4.011 9.703 8.845 0 4.915-2.731 8.88-10.057 8.88h-4.663c-.171 0-.285-.091-.285-.308V12.25Zm29.383 7.006c.069-2.697-1.485-4.686-4.137-4.686-2.4 0-4.057 1.886-4.148 4.686m11.485 2.857c-.103.126-.343.149-.548.149H94.116c.125 2.971 2.377 4.686 6.034 4.686 1.714 0 3.223-.48 4.32-.938.308-.114.377.023.377.389l.046 2.526c0 .228-.046.343-.309.434-1.097.434-3.12.766-4.731.766-2.857 0-5.177-.766-6.777-2.229-1.715-1.543-2.629-3.908-2.629-6.948 0-5.589 3.154-9.452 7.84-9.452 4.8 0 7.474 3.703 7.474 8.709.023 1.394-.08 1.703-.24 1.92v-.012Zm8.057 7.989c-1.588 0-3.714-.366-4.834-.72-.343-.114-.411-.217-.411-.48l.08-2.674c0-.218.091-.286.308-.218 1.292.549 3.155.983 5.326.983 2.846 0 3.703-1.097 3.703-2.171 0-1.074-.617-1.6-2.48-2.057l-2.08-.503c-3.28-.8-4.88-2.24-4.88-5.257 0-3.086 2.297-5.566 6.72-5.566 1.783 0 3.84.32 4.96.571.24.08.388.126.388.435l-.022 2.514c0 .229-.149.263-.412.206a23.656 23.656 0 0 0-4.914-.617c-2.252 0-3.154 1.074-3.154 2.194 0 1.131.548 1.886 2.891 2.468l1.691.4c3.223.812 4.823 2.252 4.823 4.972.023 3.131-2.125 5.52-7.714 5.52h.011Zm14.126-.412h-2.857c-.229 0-.286-.091-.286-.342V12.263c0-.206.092-.309.286-.309h2.857c.194 0 .263.103.263.309V29.37c0 .229-.069.343-.263.343v-.023Zm15.589-14.571h-4.069a.235.235 0 0 0-.24.24v14.091c0 .149-.091.24-.24.24h-2.983a.227.227 0 0 1-.24-.228V15.349c0-.115-.091-.229-.217-.229h-4.057a.232.232 0 0 1-.24-.229v-2.72c0-.137.091-.228.229-.228h12.045c.115 0 .24.091.24.228v2.72c0 .115-.114.229-.228.229Z" fill="#fff"/></g><defs><clipPath id="a"><path fill="#fff" transform="translate(.664)" d="M0 0h142.857v40H0z"/></clipPath></defs></svg>
